icon_installer/data/icons/scalable/actions/show-music-note-symbolic.svg

<?xml version="1.0" encoding="UTF-8"?>
<svg height="16px" viewBox="0 0 16 16" width="16px" xmlns="http://www.w3.org/2000/svg">
    <path d="m 5 1 v 7.34375 c -0.453125 -0.210938 -0.96875 -0.34375 -1.5 -0.34375 c -1.921875 0 -3.5 1.578125 -3.5 3.5 s 1.578125 3.5 3.5 3.5 c 1.910156 0 3.480469 -1.5625 3.5 -3.46875 c 0 -0.011719 0 -0.019531 0 -0.03125 v -7.5 h 6 v 4.34375 c -0.453125 -0.210938 -0.96875 -0.34375 -1.5 -0.34375 c -1.921875 0 -3.5 1.578125 -3.5 3.5 s 1.578125 3.5 3.5 3.5 c 1.898438 0 3.464844 -1.546875 3.5 -3.4375 c 0 -0.023438 0 -0.039062 0 -0.0625 v -10.5 z m 0 0" fill="#222222"/>
</svg>

<svg xmlns="http://www.w3.org/2000/svg" width="16" height="16"><path fill="#222" d="M5 1v7.344A3.58 3.58 0 0 0 3.5 8C1.578 8 0 9.578 0 11.5S1.578 15 3.5 15c1.91 0 3.48-1.563 3.5-3.469V4h6v4.344A3.58 3.58 0 0 0 11.5 8C9.578 8 8 9.578 8 11.5S9.578 15 11.5 15c1.898 0 3.465-1.547 3.5-3.438V1zm0 0"/></svg>
